icons/fill-new-office-doc-file-txt.svg

<svg xmlns="http://www.w3.org/2000/svg" width="32px" height="32px" viewBox="0 0 32 32" version="1.1">
    <title>fill-new-office-doc-file-txt</title>
    <g id="fill-new-office-doc-file-txt" stroke-width="1" fill-rule="evenodd">
        <path d="M28,25 L28,29 C28,29.5522847 27.5522847,30 27,30 L5,30 C4.44771525,30 4,29.5522847 4,29 L4,25 L28,25 Z M29,10 C29.5522847,10 30,10.4477153 30,11 L30,22 C30,22.5522847 29.5522847,23 29,23 L3,23 C2.44771525,23 2,22.5522847 2,22 L2,11 C2,10.4477153 2.44771525,10 3,10 L29,10 Z M11.5,12.5 L5.5,12.5 L5.5,14.5 L7.5,14.4993571 L7.5,20.5 L9.5,20.5 L9.5,14.4993571 L11.5,14.5 L11.5,12.5 Z M26.5,12.5 L20.5,12.5 L20.5,14.5 L22.5,14.4993571 L22.5,20.5 L24.5,20.5 L24.5,14.4993571 L26.5,14.5 L26.5,12.5 Z M14.921,12.4993571 L12.633,12.4993571 L14.8558427,16.5003571 L12.634,20.4993571 L14.921,20.4993571 L15.9998427,18.5583571 L17.077,20.4993571 L19.366,20.4993571 L17.1438427,16.5003571 L19.367,12.4993571 L17.078,12.4993571 L15.9998427,14.4413571 L14.921,12.4993571 Z M20.0857864,2 C20.3510029,2 20.6053568,2.10535684 20.7928932,2.29289322 L26.5,8 L4,8 L4,3 C4,2.48716416 4.38604019,2.06449284 4.88337887,2.00672773 L5,2 L20.0857864,2 Z" id="&#24418;&#29366;" />
    </g>
</svg>

<svg xmlns="http://www.w3.org/2000/svg" viewBox="0 0 32 32"><path fill="currentColor" d="M28 25v4a1 1 0 0 1-1 1H5a1 1 0 0 1-1-1v-4zm1-15a1 1 0 0 1 1 1v11a1 1 0 0 1-1 1H3a1 1 0 0 1-1-1V11a1 1 0 0 1 1-1zm-17.5 2.5h-6v2h2v6h2v-6h2zm15 0h-6v2h2v6h2v-6h2zm-11.579 0h-2.288l2.223 4-2.222 4h2.287L16 18.557l1.077 1.941h2.289L17.144 16.5l2.223-4h-2.289L16 14.44zM20.086 2a1 1 0 0 1 .707.293L26.5 8H4V3a1 1 0 0 1 .883-.993L5 2z"/></svg>
